packages/icons/src/assets/moon.svg

<svg xmlns="http://www.w3.org/2000/svg" xml:space="preserve" style="fill-rule:evenodd;clip-rule:evenodd;stroke-linejoin:round;stroke-miterlimit:2" viewBox="0 0 24 24"><path d="M20.18 15.476a8 8 0 0 1-2.045.27c-4.337 0-7.865-3.529-7.865-7.866a7.84 7.84 0 0 1 1.146-4.09 8.2 8.2 0 0 1 1.206-1.513c-.158 0-.315-.015-.48-.015q-.795.002-1.58.128c-4.824.756-8.532 4.95-8.532 9.985 0 5.573 4.54 10.112 10.112 10.112 4.03 0 7.52-2.375 9.139-5.79a9.8 9.8 0 0 0 .689-1.955 7.7 7.7 0 0 1-1.79.734m-8.038 5.513c-4.749 0-8.614-3.865-8.614-8.615 0-3.842 2.524-7.1 6.008-8.21a9.4 9.4 0 0 0-.764 3.716c0 5.161 4.202 9.363 9.363 9.363.39 0 .779-.022 1.153-.067a8.61 8.61 0 0 1-7.146 3.813" style="fill-rule:nonzero"/></svg>

<svg width="100%" height="100%" viewBox="0 0 24 24" version="1.1" xmlns="http://www.w3.org/2000/svg" xmlns:xlink="http://www.w3.org/1999/xlink" xml:space="preserve" style="fill-rule:evenodd;clip-rule:evenodd;stroke-linejoin:round;stroke-miterlimit:2;"><path d="M20.18,15.476C19.513,15.654 18.825,15.745 18.135,15.746C13.798,15.746 10.27,12.217 10.27,7.88C10.268,6.437 10.665,5.022 11.416,3.79C11.757,3.24 12.162,2.732 12.622,2.277C12.464,2.277 12.307,2.262 12.142,2.262C11.613,2.263 11.084,2.306 10.562,2.39C5.738,3.146 2.03,7.34 2.03,12.375C2.03,17.948 6.57,22.487 12.142,22.487C16.172,22.487 19.662,20.112 21.281,16.697C21.579,16.072 21.81,15.416 21.97,14.742C21.407,15.061 20.805,15.308 20.18,15.476M12.142,20.989C7.393,20.989 3.528,17.124 3.528,12.374C3.528,8.532 6.052,5.274 9.536,4.164C9.031,5.338 8.771,6.602 8.772,7.88C8.772,13.041 12.974,17.243 18.135,17.243C18.525,17.243 18.914,17.221 19.288,17.176C17.693,19.557 15.008,20.989 12.142,20.989" style="fill-rule:nonzero;"/></svg>
